src/assets/misc/cross.svg

<svg height="16" viewBox="0 0 16 16" width="16" xmlns="http://www.w3.org/2000/svg"><path d="m342.69909 43.707242c-.18748.1874457-.441802.292758-.706993.292758-.26519 0-.519513-.1053123-.706992-.292758l-6.293925-6.290226-6.28813 6.2847844c-.391061.3866911-1.021229.3850087-1.410218-.0037649-.388988-.3887736-.390649-1.0185716-.003717-1.4093893l6.28833-6.2845847-6.287181-6.2834864c-.38082-.3917439-.376336-1.0165012.010067-1.4027454s1.011527-.3908357 1.403568-.010309l6.287431 6.2834365 6.292676-6.2889279c.251432-.2579779.622317-.3607731.970783-.2690639s.620591.3637318.71228.7120123-.011245.7189263-.269428.9701558l-6.292326 6.288928 6.293925 6.290226c.187499.1873682.292825.4415147.292796.7065082-.000028.2649936-.105407.5191178-.292946.7064463z" fill="#8b98a9" transform="translate(-327 -28)"/></svg>

<svg width="16" height="16" viewBox="0 0 16 16" xmlns="http://www.w3.org/2000/svg">
    <g id="Page-1" stroke="none" stroke-width="1" fill="none" fill-rule="evenodd">
        <g id="Mobile" transform="translate(-327.000000, -28.000000)" fill-rule="nonzero" fill="#8b98a9">
            <path d="M342.69909,43.707242 C342.51161,43.8946877 342.257288,44 341.992097,44 C341.726907,44 341.472584,43.8946877 341.285105,43.707242 L334.99118,37.417016 L328.70305,43.7018004 C328.311989,44.0884915 327.681821,44.0868091 327.292832,43.6980355 C326.903844,43.3092619 326.902183,42.6794639 327.289115,42.2886462 L333.577445,36.0040615 L327.290264,29.7205751 C326.909444,29.3288312 326.913928,28.7040739 327.300331,28.3178297 C327.686734,27.9315855 328.311858,27.926994 328.703899,28.3075207 L334.99133,34.5909572 L341.284006,28.3020293 C341.535438,28.0440514 341.906323,27.9412562 342.254789,28.0329654 C342.603255,28.1246746 342.87538,28.3966972 342.967069,28.7449777 C343.058758,29.0932582 342.955824,29.463904 342.697641,29.7151335 L336.405315,36.0040615 L342.69924,42.2942875 C342.886739,42.4816557 342.992065,42.7358022 342.992036,43.0007957 C342.992008,43.2657893 342.886629,43.5199135 342.69909,43.707242 Z" id="mobile-nav-close"></path>
        </g>
    </g>
</svg>
